Adwaita++-Dark/actions/22/insert-text.svg

<svg height="22" viewBox="0 0 22 22" width="22" xmlns="http://www.w3.org/2000/svg">
  <path d="m4.3007812 2-2.8574218 8h1.4277344l.6074218-1.7148438h2.7851563l.6074219 1.7148438h1.5898437l-3.0175781-8zm.5703126 2.2851562 1 2.8574219h-2zm5.1289062.7148438v1h2.5c.21408 0 .5.30707.5.5v.5h-2.5c-.45964 0-.8678.191975-1.125.484375-.2572.29239-.3782.655335-.375 1.015625.003.36031.134465.726375.390625 1.015625.26.289.659375.484375 1.109375.484375h3.5v-.421875c.008-.0469 0-.078125 0-.078125v-3c0-.81717-.6599-1.5-1.5-1.5zm.5 3h.005859 2.494141v1h-2.5c-.19894 0-.283455-.054905-.359375-.140625-.0759-.0857-.139385-.219685-.140625-.359375-.001-.13969.0523-.276775.125-.359375.07905-.0820139.170297-.1392678.375-.140625zm-5.5 3.996094 3 4 3-4z" fill="#e6ddff" transform="translate(3 3)"/>
</svg>

<svg xmlns="http://www.w3.org/2000/svg" width="22" height="22" viewBox="0 0 22 22">
 <defs>
  <style id="current-color-scheme" type="text/css">
   .ColorScheme-Text { color:#E6DDFF; } .ColorScheme-Highlight { color:#4285f4; }
  </style>
 </defs>
 <path style="fill:currentColor" class="ColorScheme-Text" d="M 4.3007812 2 L 1.4433594 10 L 2.8710938 10 L 3.4785156 8.2851562 L 6.2636719 8.2851562 L 6.8710938 10 L 8.4609375 10 L 5.4433594 2 L 4.3007812 2 z M 4.8710938 4.2851562 L 5.8710938 7.1425781 L 3.8710938 7.1425781 L 4.8710938 4.2851562 z M 10 5 L 10 6 L 12.5 6 C 12.71408 6 13 6.30707 13 6.5 L 13 7 L 10.5 7 C 10.04036 7 9.6322 7.191975 9.375 7.484375 C 9.1178 7.776765 8.9968 8.13971 9 8.5 C 9.003 8.86031 9.134465 9.226375 9.390625 9.515625 C 9.650625 9.804625 10.05 10 10.5 10 L 14 10 L 14 9.578125 C 14.008 9.531225 14 9.5 14 9.5 L 14 6.5 C 14 5.68283 13.3401 5 12.5 5 L 10 5 z M 10.5 8 L 10.505859 8 L 13 8 L 13 9 L 10.5 9 C 10.30106 9 10.216545 8.945095 10.140625 8.859375 C 10.064725 8.773675 10.00124 8.63969 10 8.5 C 9.999 8.36031 10.0523 8.223225 10.125 8.140625 C 10.20405 8.0586111 10.295297 8.0013572 10.5 8 z M 5 11.996094 L 8 15.996094 L 11 11.996094 L 5 11.996094 z" transform="translate(3 3)"/>
</svg>
